X:2
T:Steyrer Tanz in Dis (eigentlich Es), nr.4
C:traditionell
R:Steirer
A:Hallstatt, Salzkammergut
B:Corpus Musicae Popularis Austriacae (COMPA), 5.Band: J.M.Schmalnauer " Tanz Musik", Verlag Boehlau, Wien 1996
S:manuscript des Johann Michael Schmalnauer um 1820, s.41 nr.4
N:im der quelle in Es (bezeichnet "Dis"), erster ton 1. stimme: g erster ton 2. stimme: e'
N:um1800
M:3/4
L:1/8
K:Eb
V:1
G,B, |\
TE2 (G,B,)(EB,) | A,B, TD2 A,B, | D2 A,B,DB, | G,B, E2 G,B, |\
TE2 (G,B,)(EB,) | A,B, TD2 A,B, | D2 A,B,DB, | E4 :| "in B"y |]
V:2
EG |\
BG EGBG | DFAB DF | AB DFAB | EGBGEG |\
BG EGBG | DFAB DF | AB DFAB | G4 :| "in B"y |]
